X: 1
T: Drey Dreydlekh
C: Abe Ellstein / Moyshe Oysher
M: 2/4
L: 1/16
Z: 2007 John Chambers <jc:trillian.mit.edu>
S: printed MS of unknown origin
K: Dm
[| "Dm"d4 fgfe | dcde fgfe | dcde fefg | "Bb7"_aggf feed |
   "Dm"d4 fgfe | dcde "F"f3f | "A"feef "Cm7"f_eed | "Dm"d8 |
|: "Dm"F2G2 A2A2 | "Dm7"A2A2 A4 | "G7"A2G2 G2G2 | "C7"F2D2 G4 |
